X:088
T:The Old Reel                 
B:Flowers of Scottish Melody, 1935
N:Changed from 2/4 to 4/4
Z:Nigel Gatherer
M:4/4
L:1/8
K:Gm
F|D<GGA G^FGA|BGdG eGdG|C<FFG F=EFG|AFcF dFcF|DGGA G^FGA|
BABc dcd=e|fgfd cAFA|BGAF DG G2||dgga g^fga|bgga bg g2|
c<ffg f=efg|affg af f2|dgga bagb|abag f=edc|d=efd cAFA|BGAF DGG|]
<end>
<start>
